src/actions/16/media-playlist-shuffle.svg

<svg xmlns="http://www.w3.org/2000/svg" viewBox="0 0 16 16">
  <defs id="defs3051">
    <style type="text/css" id="current-color-scheme">
      .ColorScheme-Text {
        color:#363636;
      }
      </style>
  </defs>
 <path style="fill:currentColor;fill-opacity:1;stroke:none" 
     d="m11 3.5v1.5h-2c-1.662 0-3 1.338-3 3 0 1.108-.892 2-2 2h-2v1h2c1.662 0 3-1.338 3-3 0-1.108.892-2 2-2h2v1.5l3-2zm-9 1.5v1h2c.401 0 .772.119 1.084.32.077-.333.21-.642.387-.922-.436-.246-.933-.398-1.471-.398zm9 3.5v1.5h-2c-.401 0-.772-.119-1.084-.32-.077.333-.21.642-.387.922.436.246.933.398 1.471.398h2v1.5l3-2z"
     class="ColorScheme-Text"
     />
</svg>

<svg xmlns="http://www.w3.org/2000/svg" viewBox="0 0 16 16">
    <path d="M11 3.5V5H9C7.338 5 6 6.338 6 8c0 1.108-.892 2-2 2H2v1h2c1.662 0 3-1.338 3-3 0-1.108.892-2 2-2h2v1.5l3-2zM2 5v1h2c.401 0 .772.119 1.084.32.077-.333.21-.642.387-.922A2.98 2.98 0 0 0 4 5zm9 3.5V10H9c-.401 0-.772-.119-1.084-.32-.077.333-.21.642-.387.922A2.98 2.98 0 0 0 9 11h2v1.5l3-2z" style="fill:currentColor;fill-opacity:1;stroke:none;color:#050505;opacity:.7"/>
</svg>
